src/icons/command-switch.svg

<svg enable-background="new 0 0 13 14" viewBox="0 0 13 14" xmlns="http://www.w3.org/2000/svg"><path d="m10.3 0c-.1 0-.1 0-.2 0-.2.1-.4.4-.4.6v1.3h-8.4c-.7 0-1.3.6-1.3 1.3v3.2c0 .2.1.4.3.6.2 0 .5 0 .7-.1s.3-.3.3-.6v-3.1h8.4v1.3c0 .3.2.5.4.6h.2c.2 0 .3-.1.5-.2l2-1.9c.3-.2.3-.7 0-.9l-1.9-1.9c-.2-.1-.4-.2-.6-.2zm2 7c-.4 0-.6.3-.6.6v3.2h-8.4v-1.3c0-.3-.2-.5-.4-.6-.1 0-.2 0-.2 0-.3 0-.4.1-.6.2l-1.9 1.9c-.3.2-.3.7 0 .9l1.9 1.9c.2.2.5.2.7.2.2-.1.4-.3.4-.6v-1.3h8.4c.7 0 1.3-.6 1.3-1.3v-3.2c0-.2-.1-.3-.2-.5s-.2-.1-.4-.1z" fill="#4d5969"/></svg>

<?xml version="1.0" encoding="utf-8"?>
<!-- Generator: Adobe Illustrator 20.1.0, SVG Export Plug-In . SVG Version: 6.00 Build 0)  -->
<svg version="1.1" id="Layer_1" xmlns="http://www.w3.org/2000/svg" xmlns:xlink="http://www.w3.org/1999/xlink" x="0px" y="0px"
	 viewBox="0 0 13 14" style="enable-background:new 0 0 13 14;" xml:space="preserve">
<style type="text/css">
	.st0{fill:#4D5969;}
</style>
<title>HDL/Icon/Standard/Command/switch</title>
<desc>Created with Sketch.</desc>
<g id="Colors">
	<g id="Command-Icons" transform="translate(-121.000000, -876.000000)">
		<g id="AutoScaling" transform="translate(102.000000, 858.000000)">
			<g id="HDL_x2F_Icon_x2F_Standard_x2F_Command_x2F_switch" transform="translate(19.000000, 18.000000)">
				<path id="Shape" class="st0" d="M10.3,0c-0.1,0-0.1,0-0.2,0C9.9,0.1,9.7,0.4,9.7,0.6v1.3H1.3C0.6,1.9,0,2.5,0,3.2v3.2
					c0,0.2,0.1,0.4,0.3,0.6C0.5,7,0.8,7,1,6.9c0.2-0.1,0.3-0.3,0.3-0.6V3.2h8.4v1.3c0,0.3,0.2,0.5,0.4,0.6c0.1,0,0.2,0,0.2,0
					c0.2,0,0.3-0.1,0.5-0.2L12.8,3c0.3-0.2,0.3-0.7,0-0.9l-1.9-1.9C10.7,0.1,10.5,0,10.3,0z M12.3,7c-0.4,0-0.6,0.3-0.6,0.6v3.2H3.3
					V9.5c0-0.3-0.2-0.5-0.4-0.6c-0.1,0-0.2,0-0.2,0C2.4,8.9,2.3,9,2.1,9.1L0.2,11c-0.3,0.2-0.3,0.7,0,0.9l1.9,1.9
					C2.3,14,2.6,14,2.8,14c0.2-0.1,0.4-0.3,0.4-0.6v-1.3h8.4c0.7,0,1.3-0.6,1.3-1.3V7.6c0-0.2-0.1-0.3-0.2-0.5S12.5,7,12.3,7z"/>
			</g>
		</g>
	</g>
</g>
</svg>
